config.ocio
ocio_profile_version: 2

environment:
  {}
search_path: LUTs
strictparsing: true
luma: [0.2126, 0.7152, 0.0722]

roles:
  color_picking: sRGB
  color_timing: sRGB
  compositing_log: sRGB
  data: Generic Data
  default: sRGB
  default_byte: sRGB
  default_float: Linear BT.709
  default_sequencer: sRGB
  matte_paint: sRGB
  reference: Linear BT.709
  scene_linear: Linear BT.709
  texture_paint: sRGB

file_rules:
  - !<Rule> {name: Default, colorspace: default}

displays:
  sRGB:
    - !<View> {name: Display Native, colorspace: sRGB}
    - !<View> {name: AgX, colorspace: AgX Base}
    - !<View> {name: Appearance Golden, colorspace: Appearance Golden sRGB}
    - !<View> {name: Appearance Punchy, colorspace: Appearance Punchy sRGB}
  Display P3:
    - !<View> {name: Display Native, colorspace: Display P3}
    - !<View> {name: AgX, colorspace: AgX Base Display P3}
    - !<View> {name: Appearance Golden, colorspace: Appearance Golden Display P3}
    - !<View> {name: Appearance Punchy, colorspace: Appearance Punchy Display P3}
  BT.1886:
    - !<View> {name: Display Native, colorspace: BT.1886}
    - !<View> {name: AgX, colorspace: AgX Base BT.1886}
    - !<View> {name: Appearance Golden, colorspace: Appearance Golden BT.1886}
    - !<View> {name: Appearance Punchy, colorspace: Appearance Punchy BT.1886}

active_displays: []
active_views: []

looks:
  - !<Look>
    name: Golden
    process_space: AgX Base
    description: A golden tinted, slightly washed look
    transform: !<CDLTransform> {slope: [1, 0.9, 0.5], power: [0.8, 0.8, 0.8], sat: 1.3}

  - !<Look>
    name: Punchy
    process_space: AgX Base
    description: A punchy and more chroma laden look
    transform: !<CDLTransform> {power: [1.35, 1.35, 1.35], sat: 1.4}



  - !<Look>
    name: AgX - Punchy
    process_space: AgX Base
    description: A darkening punchy look
    transform: !<GroupTransform>
      children:
        - !<GradingToneTransform>
         shadows: {rgb: [0.2, 0.2, 0.2], master: 0.35, start: 0.4, pivot: 0.1}
        - !<CDLTransform> {power: [1.0912, 1.0912, 1.0912]}

  - !<Look>
    name: AgX - Greyscale
    process_space: AgX Base
    description: A Black and White Look
    transform: !<GroupTransform>
      children:
        - !<AllocationTransform> {allocation: lg2, vars: [-12.47393, 12.5260688117], direction: inverse}
        - !<MatrixTransform> {matrix: [0.2658180370250449, 0.59846986045365, 0.1357121025213052, 0, 0.2658180370250449, 0.59846986045365, 0.1357121025213052, 0, 0.2658180370250449, 0.59846986045365, 0.1357121025213052, 0, 0, 0, 0, 1]}
        - !<AllocationTransform> {allocation: lg2, vars: [-12.47393, 12.5260688117]}

  - !<Look>
    name: AgX - Very High Contrast
    process_space: AgX Base
    description: A Very High Contrast Look
    transform: !<GroupTransform>
      children:
        - !<GradingPrimaryTransform>
          style: log
          contrast: {rgb: [1.57, 1.57, 1.57], master: 1}
          saturation: 0.9
          pivot: {contrast: -0.2}

  - !<Look>
    name: AgX - High Contrast
    process_space: AgX Base
    description: A High Contrast Look
    transform: !<GroupTransform>
      children:
        - !<GradingPrimaryTransform>
          style: log
          contrast: {rgb: [1.4, 1.4, 1.4], master: 1}
          saturation: 0.95
          pivot: {contrast: -0.2}

  - !<Look>
    name: AgX - Medium High Contrast
    process_space: AgX Base
    description: A Medium High Contrast Look
    transform: !<GroupTransform>
      children:
        - !<GradingPrimaryTransform>
          style: log
          contrast: {rgb: [1.2, 1.2, 1.2], master: 1}
          saturation: 1
          pivot: {contrast: -0.2}

  - !<Look>
    name: AgX - Base Contrast
    process_space: AgX Base
    description: A Base Contrast Look
    transform: !<GroupTransform>
      children:
        - !<GradingPrimaryTransform>
          style: log
          contrast: {rgb: [1, 1, 1], master: 1}
          pivot: {contrast: -0.2}

  - !<Look>
    name: AgX - Medium Low Contrast
    process_space: AgX Base
    description: A Medium Low Contrast Look
    transform: !<GroupTransform>
      children:
        - !<GradingPrimaryTransform>
          style: log
          contrast: {rgb: [0.9, 0.9, 0.9], master: 1}
          saturation: 1.05
          pivot: {contrast: -0.2}

  - !<Look>
    name: AgX - Low Contrast
    process_space: AgX Base
    description: A Low Contrast Look
    transform: !<GroupTransform>
      children:
        - !<GradingPrimaryTransform>
          style: log
          contrast: {rgb: [0.8, 0.8, 0.8], master: 1}
          saturation: 1.1
          pivot: {contrast: -0.2}

  - !<Look>
    name: AgX - Very Low Contrast
    process_space: AgX Base
    description: A Very Low Contrast Look
    transform: !<GroupTransform>
      children:
        - !<GradingPrimaryTransform>
          style: log
          contrast: {rgb: [0.7, 0.7, 0.7], master: 1}
          saturation: 1.15
          pivot: {contrast: -0.2}

  - !<Look>
    name: False Color - Punchy
    process_space: AgX Base
    description: A darkening punchy look
    transform: !<GroupTransform>
      children:
        - !<GradingToneTransform>
         shadows: {rgb: [0.2, 0.2, 0.2], master: 0.35, start: 0.4, pivot: 0.1}
        - !<CDLTransform> {power: [1.0912, 1.0912, 1.0912]}

  - !<Look>
    name: False Color - Greyscale
    process_space: AgX Base
    description: A Black and White Look
    transform: !<GroupTransform>
      children:
        - !<AllocationTransform> {allocation: lg2, vars: [-12.47393, 12.5260688117], direction: inverse}
        - !<MatrixTransform> {matrix: [0.2658180370250449, 0.59846986045365, 0.1357121025213052, 0, 0.2658180370250449, 0.59846986045365, 0.1357121025213052, 0, 0.2658180370250449, 0.59846986045365, 0.1357121025213052, 0, 0, 0, 0, 1]}
        - !<AllocationTransform> {allocation: lg2, vars: [-12.47393, 12.5260688117]}

  - !<Look>
    name: False Color - Very High Contrast
    process_space: AgX Base
    description: A Very High Contrast Look
    transform: !<GroupTransform>
      children:
        - !<GradingPrimaryTransform>
          style: log
          contrast: {rgb: [1.57, 1.57, 1.57], master: 1}
          saturation: 0.9
          pivot: {contrast: -0.2}

  - !<Look>
    name: False Color - High Contrast
    process_space: AgX Base
    description: A High Contrast Look
    transform: !<GroupTransform>
      children:
        - !<GradingPrimaryTransform>
          style: log
          contrast: {rgb: [1.4, 1.4, 1.4], master: 1}
          saturation: 0.95
          pivot: {contrast: -0.2}

  - !<Look>
    name: False Color - Medium High Contrast
    process_space: AgX Base
    description: A Medium High Contrast Look
    transform: !<GroupTransform>
      children:
        - !<GradingPrimaryTransform>
          style: log
          contrast: {rgb: [1.2, 1.2, 1.2], master: 1}
          saturation: 1
          pivot: {contrast: -0.2}

  - !<Look>
    name: False Color - Base Contrast
    process_space: AgX Base
    description: A Base Contrast Look
    transform: !<GroupTransform>
      children:
        - !<GradingPrimaryTransform>
          style: log
          contrast: {rgb: [1, 1, 1], master: 1}
          pivot: {contrast: -0.2}

  - !<Look>
    name: False Color - Medium Low Contrast
    process_space: AgX Base
    description: A Medium Low Contrast Look
    transform: !<GroupTransform>
      children:
        - !<GradingPrimaryTransform>
          style: log
          contrast: {rgb: [0.9, 0.9, 0.9], master: 1}
          saturation: 1.05
          pivot: {contrast: -0.2}

  - !<Look>
    name: False Color - Low Contrast
    process_space: AgX Base
    description: A Low Contrast Look
    transform: !<GroupTransform>
      children:
        - !<GradingPrimaryTransform>
          style: log
          contrast: {rgb: [0.8, 0.8, 0.8], master: 1}
          saturation: 1.1
          pivot: {contrast: -0.2}

  - !<Look>
    name: False Color - Very Low Contrast
    process_space: AgX Base
    description: A Very Low Contrast Look
    transform: !<GroupTransform>
      children:
        - !<GradingPrimaryTransform>
          style: log
          contrast: {rgb: [0.7, 0.7, 0.7], master: 1}
          saturation: 1.15
          pivot: {contrast: -0.2}



colorspaces:
  - !<ColorSpace>
    name: Linear BT.709
    aliases: [Linear, Linear Tristimulus]
    family: Colourspaces
    equalitygroup: ""
    bitdepth: unknown
    description: Open Domain Linear BT.709 Tristimulus
    isdata: false
    allocation: uniform

  - !<ColorSpace>
    name: AgX Log (Kraken)
    aliases: [Log, AgX Log, Kraken, AgX Kraken Log]
    family: Log Encodings
    equalitygroup: ""
    bitdepth: unknown
    description: AgX Log, (Kraken)
    isdata: false
    allocation: uniform
    from_scene_reference: !<GroupTransform>
      children:
        - !<RangeTransform> {min_in_value: 0, min_out_value: 0}
        - !<MatrixTransform> {matrix: [0.842479062253094, 0.0784335999999992, 0.0792237451477643, 0, 0.0423282422610123, 0.878468636469772, 0.0791661274605434, 0, 0.0423756549057051, 0.0784336, 0.879142973793104, 0, 0, 0, 0, 1]}
        - !<AllocationTransform> {allocation: lg2, vars: [-12.47393, 4.026069]}

  - !<ColorSpace>
    name: 2.2 EOTF Encoding
    aliases: [sRGB EOTF Encoding]
    family: Utilities/Curves
    equalitygroup: ""
    bitdepth: unknown
    description: 2.2 Exponent EOTF Encoding
    isdata: false
    allocation: uniform
    from_scene_reference: !<ExponentTransform> {value: 2.2, direction: inverse}

  - !<ColorSpace>
    name: 2.4 EOTF Encoding
    aliases: [BT.1886 EOTF Encoding]
    family: Utilities/Curves
    equalitygroup: ""
    bitdepth: unknown
    description: 2.4 Exponent EOTF Encoding
    isdata: false
    allocation: uniform
    from_scene_reference: !<ExponentTransform> {value: 2.4, direction: inverse}

  - !<ColorSpace>
    name: sRGB
    family: Displays/SDR
    equalitygroup: ""
    bitdepth: unknown
    description: sRGB IEC 61966-2-1 2.2 Exponent Reference EOTF Display
    isdata: false
    allocation: uniform
    from_scene_reference: !<ColorSpaceTransform> {src: Linear BT.709, dst: 2.2 EOTF Encoding}

  - !<ColorSpace>
    name: Display P3
    family: Displays/SDR
    equalitygroup: ""
    bitdepth: unknown
    description: Display P3 2.2 Exponent EOTF Display
    isdata: false
    allocation: uniform
    from_scene_reference: !<GroupTransform>
      children:
        - !<MatrixTransform> {matrix: [0.822533651175139, 0.17754580666797, 5.36947712599933e-05, 0, 0.0331170846132368, 0.966848142976822, -3.14995811217383e-06, 0, 0.0170564417474994, 0.0724006113523901, 0.910489265923157, 0, 0, 0, 0, 1]}
        - !<ColorSpaceTransform> {src: Linear BT.709, dst: 2.2 EOTF Encoding}

  - !<ColorSpace>
    name: BT.1886
    family: Displays/SDR
    equalitygroup: ""
    bitdepth: unknown
    description: BT.1886 2.4 Exponent EOTF Display
    isdata: false
    allocation: uniform
    from_scene_reference: !<ColorSpaceTransform> {src: Linear BT.709, dst: 2.4 EOTF Encoding}

  - !<ColorSpace>
    name: AgX Base
    family: Imagery
    equalitygroup: ""
    bitdepth: unknown
    description: AgX Base Image Encoding
    isdata: false
    allocation: uniform
    from_scene_reference: !<GroupTransform>
      children:
        - !<ColorSpaceTransform> {src: Linear BT.709, dst: AgX Log (Kraken)}
        - !<FileTransform> {src: AgX_Default_Contrast.spi1d}

  - !<ColorSpace>
    name: AgX Base BT.1886
    family: Views/AgX BT.1886
    equalitygroup: ""
    bitdepth: unknown
    description: AgX Base Image Encoding for BT.1886 Displays
    isdata: false
    allocation: uniform
    from_scene_reference: !<GroupTransform>
      children:
        - !<ColorSpaceTransform> {src: Linear BT.709, dst: AgX Base}
        - !<ColorSpaceTransform> {src: 2.2 EOTF Encoding, dst: 2.4 EOTF Encoding}

  - !<ColorSpace>
    name: AgX Base Display P3
    family: Views/AgX Display P3
    equalitygroup: ""
    bitdepth: unknown
    description: AgX Base Image Encoding for Display P3 Displays
    isdata: false
    allocation: uniform
    from_scene_reference: !<GroupTransform>
      children:
        - !<ColorSpaceTransform> {src: Linear BT.709, dst: AgX Base}
        - !<ColorSpaceTransform> {src: 2.2 EOTF Encoding, dst: Display P3}

  - !<ColorSpace>
    name: Appearance Golden sRGB
    family: Appearances/Golden
    equalitygroup: ""
    bitdepth: unknown
    description: A golden tinted, slightly washed look for sRGB displays
    isdata: false
    allocation: uniform
    from_scene_reference: !<LookTransform> {src: Linear BT.709, dst: AgX Base, looks: Golden}

  - !<ColorSpace>
    name: Appearance Golden Display P3
    family: Appearances/Golden
    equalitygroup: ""
    bitdepth: unknown
    description: A golden tinted, slightly washed look for Display P3 displays
    isdata: false
    allocation: uniform
    from_scene_reference: !<GroupTransform>
      children:
        - !<LookTransform> {src: Linear BT.709, dst: AgX Base, looks: Golden}
        - !<ColorSpaceTransform> {src: 2.2 EOTF Encoding, dst: Display P3}

  - !<ColorSpace>
    name: Appearance Golden BT.1886
    family: Appearances/Golden
    equalitygroup: ""
    bitdepth: unknown
    description: A golden tinted, slightly washed look for BT.1886 displays
    isdata: false
    allocation: uniform
    from_scene_reference: !<GroupTransform>
      children:
        - !<LookTransform> {src: Linear BT.709, dst: AgX Base, looks: Golden}
        - !<ColorSpaceTransform> {src: 2.2 EOTF Encoding, dst: 2.4 EOTF Encoding}

  - !<ColorSpace>
    name: Appearance Punchy sRGB
    family: Appearances/Punchy
    equalitygroup: ""
    bitdepth: unknown
    description: A punchy and more chroma laden look for sRGB displays
    isdata: false
    allocation: uniform
    from_scene_reference: !<LookTransform> {src: Linear BT.709, dst: AgX Base, looks: Punchy}

  - !<ColorSpace>
    name: Appearance Punchy Display P3
    family: Appearances/Punchy
    equalitygroup: ""
    bitdepth: unknown
    description: A punchy and more chroma laden look for Display P3 displays
    isdata: false
    allocation: uniform
    from_scene_reference: !<GroupTransform>
      children:
        - !<LookTransform> {src: Linear BT.709, dst: AgX Base, looks: Punchy}
        - !<ColorSpaceTransform> {src: 2.2 EOTF Encoding, dst: Display P3}

  - !<ColorSpace>
    name: Appearance Punchy BT.1886
    family: Appearances/Punchy
    equalitygroup: ""
    bitdepth: unknown
    description: A punchy and more chroma laden look for BT.1886 displays
    isdata: false
    allocation: uniform
    from_scene_reference: !<GroupTransform>
      children:
        - !<LookTransform> {src: Linear BT.709, dst: AgX Base, looks: Punchy}
        - !<ColorSpaceTransform> {src: 2.2 EOTF Encoding, dst: 2.4 EOTF Encoding}

  - !<ColorSpace>
    name: Generic Data
    aliases: [Non-Color, Raw]
    family: Data/Generic Data
    equalitygroup: ""
    bitdepth: unknown
    description: Generic data encoding
    isdata: true
    allocation: uniform
